X:1
T:Title
L:1/8
Q:1/4=100
M:4/4
K:D
V:1 treble nm="Grand Piano"
V:1
 A2 AG B2 BA | GAGF E2 ED | z D D2 F2 G2 | ABAG A4 | z GGF A2 AG | F>G FE D2 D2 | z D C2 B,2 C2 | %7
w: ????~???? * * * * *|||||||
 DEDC D4 | GGGF G2 GF | EA G/A/F/G/ E4 | FFFE F2 FE | DCDE D4 | A2 AG B2 BA | GAGF GFED | %14
w: |||||||
 z GGF A2 AG | FGFE D2 A,2 | z AAG B2 BA | GAGF GFED | z GGF A2 AG | FGFE D2 E2 | F2 DD D2 DC | %21
w: |||||||
 B,2 C2 DEDC | D2 DD D2 DC | B,2 C2 DEDC | D8 |] %25
w: ||||

